X: 33786
T: Rawgabbit, The
R: jig
M: 6/8
K: Gmajor
D|:~G3 BAG|FED cBA|BdB cAG|~F3 DEF|~G3 BAG|
FED cBA|1 BdB cAF|AGF G2D:|2 BdB cec|agf g2d||
|:~g3 bag|fed cAF|~G3 BdB|cag fed|
~g3 bag|fed ^cde|gdB gdB|1 AGF G2d:|2 AGF G2D||

